!!!COM: Emmanuel Chabrier
!!!CNT: Francais
!!!TXO: Francais
!!!OTL: "Credo d'amour"
!!!LYR: Silvestre
!!!OPR: 
!!!OPS:  
!!!ONM:  
!!!ENC: Emily Thomas
!!!YOR: CD Sheet Music French Art Songs, The Ultimate Collection
!!!YOR: CD Sheet Music, LLC 2003
!!!ODT: 1883/
!!NB: Vocal melody and text encoded.
**kern	**silbe
=0	=0
*clefG2	*
*k[b-e-]	*
*M3/4	*
*MM[Maestoso sans lenteur]	*
2.r	.
=2	=2
2.r	.
=3	=3
2.r	.
=4	=4
2.r	.
=5	=5
4r	.
4r	.
{4b-	{Je
=6	=6
[2.cc	crois
=7	=7
8cc]	|
8b-	aux
8a-	cho-
8cc	-ses
8b-	e/-
8a-	-ter-
=8	=8
8g	-nel-
8a-	|
8b-	-les
8e-	De
8f	la
8g	lu-
=9	=9
8b-	-mie/re
8ee-	et
4ee-	de
8dd	l'a-
8cc	|
=10	=10
[2dd	-mour!
8dd]}	|}
{8d	{Car
=11	=11
8f	la
8a	beau-
[4g	-te/
8g]	|
8e-	com-
=12	=12
8g	-me
8b-	le
8a}	jour,}
{8a	{Al-
[4dd	-lu-
=13	=13
8dd]	-me
8a	un
4.cc	feu
8b-	dans
=14	=14
8a	les
8d	pru-
4.g	-nel-
16f#	|
16en	|
=15	=15
[4d	-les!
8d]}	|}
8r	.
{8.f	{Car
16f#	les
=16	=16
4f#	fem-
12g	-mes
12r	.
12c	por-
12e-	-tent
12g	|
12b-	en
=17	=17
4ee-	el-
4a	-les
8a	L'ombre
8g	et
=18	=18
8g	la
8f	clar-
4b-	-te/
12g	tour
12a	|
12b-	a\
=19	=19
2.cc}	tour!}
=20	=20
{4b-	{Je
[2ff	crois
=21	=21
8ff]	|
8ee-	aux
8dd	chos-
8cc	-es
8ee-	e/-
8dd	-ter-
=22	=22
8cc	-nel-
8b-	|
8a	-les
8g	De
8cc	la
8b-	lum-
=23	=23
8a	-ie\re
8g	et
4.g	de
8f	l'a-
=24	=24
2.b-}	-mour!}
==	==
*-	*-
